static/images/pieces/disguised/shogi-enemy.svg

<?xml version="1.0" encoding="UTF-8" standalone="no"?>
<svg
   width="55"
   height="60"
   version="1.1"
   id="svg1717"
   sodipodi:docname="shogi-enemy.svg"
   inkscape:version="1.1.2 (0a00cf5339, 2022-02-04)"
   xmlns:inkscape="http://www.inkscape.org/namespaces/inkscape"
   xmlns:sodipodi="http://sodipodi.sourceforge.net/DTD/sodipodi-0.dtd"
   xmlns:xlink="http://www.w3.org/1999/xlink"
   xmlns="http://www.w3.org/2000/svg"
   xmlns:svg="http://www.w3.org/2000/svg"
   xmlns:rdf="http://www.w3.org/1999/02/22-rdf-syntax-ns#"
   xmlns:cc="http://creativecommons.org/ns#"
   xmlns:dc="http://purl.org/dc/elements/1.1/">
  <metadata
     id="metadata1723">
    <rdf:RDF>
      <cc:Work
         rdf:about="">
        <dc:format>image/svg+xml</dc:format>
        <dc:type
           rdf:resource="http://purl.org/dc/dcmitype/StillImage" />
      </cc:Work>
    </rdf:RDF>
  </metadata>
  <defs
     id="defs1721">
    <filter
       style="color-interpolation-filters:sRGB"
       inkscape:label="Drop Shadow"
       id="filter1552">
      <feFlood
         flood-opacity="0.498039"
         flood-color="rgb(0,0,0)"
         result="flood"
         id="feFlood1542" />
      <feComposite
         in="flood"
         in2="SourceGraphic"
         operator="in"
         result="composite1"
         id="feComposite1544" />
      <feGaussianBlur
         in="composite1"
         stdDeviation="2.5"
         result="blur"
         id="feGaussianBlur1546" />
      <feOffset
         dx="4.57967e-15"
         dy="4.41314e-15"
         result="offset"
         id="feOffset1548" />
      <feComposite
         in="SourceGraphic"
         in2="offset"
         operator="over"
         result="composite2"
         id="feComposite1550" />
    </filter>
    <filter
       style="color-interpolation-filters:sRGB"
       inkscape:label="Drop Shadow"
       id="filter1540">
      <feFlood
         flood-opacity="0.498039"
         flood-color="rgb(0,0,0)"
         result="flood"
         id="feFlood1530" />
      <feComposite
         in="flood"
         in2="SourceGraphic"
         operator="in"
         result="composite1"
         id="feComposite1532" />
      <feGaussianBlur
         in="composite1"
         stdDeviation="2.5"
         result="blur"
         id="feGaussianBlur1534" />
      <feOffset
         dx="4.57967e-15"
         dy="4.41314e-15"
         result="offset"
         id="feOffset1536" />
      <feComposite
         in="SourceGraphic"
         in2="offset"
         operator="over"
         result="composite2"
         id="feComposite1538" />
    </filter>
    <filter
       id="drop-shadow-9">
      <feGaussianBlur
         in="SourceAlpha"
         result="blur"
         stdDeviation="2"
         id="feGaussianBlur5056" />
      <feOffset
         result="offsetBlur"
         dx="2"
         dy="2"
         id="feOffset5058" />
      <feBlend
         in="SourceGraphic"
         in2="offsetBlur"
         mode="normal"
         id="feBlend5060" />
    </filter>
    <filter
       id="drop-shadow-2">
      <feGaussianBlur
         in="SourceAlpha"
         result="blur"
         stdDeviation="2"
         id="feGaussianBlur6807" />
      <feOffset
         result="offsetBlur"
         dx="2"
         dy="2"
         id="feOffset6809" />
      <feBlend
         in="SourceGraphic"
         in2="offsetBlur"
         mode="normal"
         id="feBlend6811" />
    </filter>
    <filter
       id="drop-shadow-2-8">
      <feGaussianBlur
         in="SourceAlpha"
         result="blur"
         stdDeviation="2"
         id="feGaussianBlur6807-2" />
      <feOffset
         result="offsetBlur"
         dx="2"
         dy="2"
         id="feOffset6809-8" />
      <feBlend
         in="SourceGraphic"
         in2="offsetBlur"
         mode="normal"
         id="feBlend6811-0" />
    </filter>
    <filter
       id="drop-shadow-6">
      <feGaussianBlur
         in="SourceAlpha"
         result="blur"
         stdDeviation="2"
         id="feGaussianBlur5056-9" />
      <feOffset
         result="offsetBlur"
         dx="2"
         dy="2"
         id="feOffset5058-0" />
      <feBlend
         in="SourceGraphic"
         in2="offsetBlur"
         mode="normal"
         id="feBlend5060-9" />
    </filter>
    <filter
       id="drop-shadow-27">
      <feGaussianBlur
         in="SourceAlpha"
         result="blur"
         stdDeviation="2"
         id="feGaussianBlur5056-5" />
      <feOffset
         result="offsetBlur"
         dx="2"
         dy="2"
         id="feOffset5058-6" />
      <feBlend
         in="SourceGraphic"
         in2="offsetBlur"
         mode="normal"
         id="feBlend5060-96" />
    </filter>
    <filter
       id="drop-shadow-2-88"
       x="-0.11773701"
       y="-0.096377853"
       width="1.2845311"
       height="1.2329131">
      <feGaussianBlur
         in="SourceAlpha"
         result="blur"
         stdDeviation="2"
         id="feGaussianBlur6807-1" />
      <feOffset
         result="offsetBlur"
         dx="2"
         dy="2"
         id="feOffset6809-5" />
      <feBlend
         in="SourceGraphic"
         in2="offsetBlur"
         mode="normal"
         id="feBlend6811-7" />
    </filter>
    <filter
       id="drop-shadow-6-3">
      <feGaussianBlur
         in="SourceAlpha"
         result="blur"
         stdDeviation="2"
         id="feGaussianBlur5056-9-4" />
      <feOffset
         result="offsetBlur"
         dx="2"
         dy="2"
         id="feOffset5058-0-0" />
      <feBlend
         in="SourceGraphic"
         in2="offsetBlur"
         mode="normal"
         id="feBlend5060-9-8" />
    </filter>
    <linearGradient
       inkscape:collect="always"
       id="linearGradient12530">
      <stop
         style="stop-color:#dfb459;stop-opacity:1"
         offset="0"
         id="stop12526" />
      <stop
         id="stop16843"
         offset="0.04123921"
         style="stop-color:#dead54;stop-opacity:1" />
      <stop
         id="stop12556"
         offset="0.08247842"
         style="stop-color:#e1b85f;stop-opacity:1" />
      <stop
         id="stop12532"
         offset="0.16495684"
         style="stop-color:#dba84d;stop-opacity:1" />
      <stop
         style="stop-color:#dfb765;stop-opacity:1"
         offset="0.3052367"
         id="stop12564" />
      <stop
         style="stop-color:#d8a94e;stop-opacity:1"
         offset="0.53886235"
         id="stop12558" />
      <stop
         id="stop12562"
         offset="0.58579648"
         style="stop-color:#d5ab53;stop-opacity:1" />
      <stop
         style="stop-color:#e0bf6e;stop-opacity:1"
         offset="0.83974683"
         id="stop12534" />
      <stop
         id="stop16845"
         offset="0.92426348"
         style="stop-color:#daae52;stop-opacity:1" />
      <stop
         id="stop12560"
         offset="0.96230692"
         style="stop-color:#d9af57;stop-opacity:1" />
      <stop
         style="stop-color:#e1b663;stop-opacity:1"
         offset="1"
         id="stop12528" />
    </linearGradient>
    <filter
       id="drop-shadow-6-2">
      <feGaussianBlur
         in="SourceAlpha"
         result="blur"
         stdDeviation="2"
         id="feGaussianBlur5056-9-9" />
      <feOffset
         result="offsetBlur"
         dx="2"
         dy="2"
         id="feOffset5058-0-7" />
      <feBlend
         in="SourceGraphic"
         in2="offsetBlur"
         mode="normal"
         id="feBlend5060-9-0" />
    </filter>
    <linearGradient
       inkscape:collect="always"
       xlink:href="#linearGradient12530"
       id="linearGradient2259"
       x1="148.57835"
       y1="49.825951"
       x2="130.3233"
       y2="49.825951"
       gradientUnits="userSpaceOnUse"
       spreadMethod="repeat" />
    <filter
       id="drop-shadow-6-6">
      <feGaussianBlur
         in="SourceAlpha"
         result="blur"
         stdDeviation="2"
         id="feGaussianBlur5056-9-8" />
      <feOffset
         result="offsetBlur"
         dx="2"
         dy="2"
         id="feOffset5058-0-1" />
      <feBlend
         in="SourceGraphic"
         in2="offsetBlur"
         mode="normal"
         id="feBlend5060-9-7" />
    </filter>
    <filter
       id="drop-shadow-6-9">
      <feGaussianBlur
         in="SourceAlpha"
         result="blur"
         stdDeviation="2"
         id="feGaussianBlur5056-9-7" />
      <feOffset
         result="offsetBlur"
         dx="2"
         dy="2"
         id="feOffset5058-0-8" />
      <feBlend
         in="SourceGraphic"
         in2="offsetBlur"
         mode="normal"
         id="feBlend5060-9-3" />
    </filter>
    <filter
       id="drop-shadow-6-23">
      <feGaussianBlur
         in="SourceAlpha"
         result="blur"
         stdDeviation="2"
         id="feGaussianBlur5056-9-87" />
      <feOffset
         result="offsetBlur"
         dx="2"
         dy="2"
         id="feOffset5058-0-9" />
      <feBlend
         in="SourceGraphic"
         in2="offsetBlur"
         mode="normal"
         id="feBlend5060-9-6" />
    </filter>
    <filter
       id="drop-shadow-2-84-1-4">
      <feGaussianBlur
         in="SourceAlpha"
         result="blur"
         stdDeviation="2"
         id="feGaussianBlur6807-9-0-2" />
      <feOffset
         result="offsetBlur"
         dx="2"
         dy="2"
         id="feOffset6809-5-3-5" />
      <feBlend
         in="SourceGraphic"
         in2="offsetBlur"
         mode="normal"
         id="feBlend6811-1-0-4" />
    </filter>
    <linearGradient
       id="linearGradient11760"
       inkscape:collect="always">
      <stop
         id="stop11738"
         offset="0"
         style="stop-color:#e5c37b;stop-opacity:1" />
      <stop
         style="stop-color:#e4bd76;stop-opacity:1"
         offset="0.04234359"
         id="stop11740" />
      <stop
         style="stop-color:#e7c781;stop-opacity:1"
         offset="0.09289452"
         id="stop11742" />
      <stop
         style="stop-color:#e2b86e;stop-opacity:1"
         offset="0.16495684"
         id="stop11744" />
      <stop
         id="stop11746"
         offset="0.3052367"
         style="stop-color:#e6c686;stop-opacity:1" />
      <stop
         id="stop11748"
         offset="0.53886235"
         style="stop-color:#dfb96f;stop-opacity:1" />
      <stop
         style="stop-color:#ddbb73;stop-opacity:1"
         offset="0.58579648"
         id="stop11750" />
      <stop
         id="stop11752"
         offset="0.83974683"
         style="stop-color:#e7ce8f;stop-opacity:1" />
      <stop
         style="stop-color:#e1bd73;stop-opacity:1"
         offset="0.92426348"
         id="stop11754" />
      <stop
         style="stop-color:#e0bf78;stop-opacity:1"
         offset="0.96230692"
         id="stop11756" />
      <stop
         id="stop11758"
         offset="1"
         style="stop-color:#e7c685;stop-opacity:1" />
    </linearGradient>
    <linearGradient
       inkscape:collect="always"
       xlink:href="#linearGradient11760"
       id="linearGradient31599"
       gradientUnits="userSpaceOnUse"
       x1="148.57835"
       y1="49.825951"
       x2="130.3233"
       y2="49.825951"
       spreadMethod="repeat" />
  </defs>
  <sodipodi:namedview
     pagecolor="#ffffff"
     bordercolor="#666666"
     borderopacity="1"
     objecttolerance="10"
     gridtolerance="10"
     guidetolerance="10"
     inkscape:pageopacity="0"
     inkscape:pageshadow="2"
     inkscape:window-width="2560"
     inkscape:window-height="1376"
     id="namedview1719"
     showgrid="false"
     inkscape:zoom="7.8666667"
     inkscape:cx="3.1779661"
     inkscape:cy="41.377118"
     inkscape:window-x="0"
     inkscape:window-y="0"
     inkscape:window-maximized="1"
     inkscape:current-layer="svg1717"
     inkscape:pagecheckerboard="0" />
  <!--
Created by Hari Seldon and modified by orangain, licensed under Creative Commons Attribution-Share Alike 3.0 Unported.
See: https://creativecommons.org/licenses/by-sa/3.0/deed.en

Original file is available at: https://commons.wikimedia.org/wiki/File:Shogi_gyokusho(svg).svg
-->
  <filter
     id="drop-shadow">
    <feGaussianBlur
       in="SourceAlpha"
       result="blur"
       stdDeviation="2"
       id="feGaussianBlur1692" />
    <feOffset
       result="offsetBlur"
       dx="2"
       dy="2"
       id="feOffset1694" />
    <feBlend
       in="SourceGraphic"
       in2="offsetBlur"
       mode="normal"
       id="feBlend1696" />
  </filter>
  <g
     style="fill:url(#linearGradient2259);fill-opacity:1;filter:url(#drop-shadow-2-88)"
     transform="matrix(0.98185054,0,0,0.98185054,-100.00148,-23.218948)"
     id="g7764">
    <g
       transform="rotate(180,45.578499,23.8125)"
       id="g7762"
       style="fill:url(#linearGradient2259);fill-opacity:1.0">
      <path
         style="fill:#876419;fill-opacity:1;stroke-width:0.98185056"
         d="M 46.001953 6.0566406 L 45.865234 7.0117188 L 46.570312 7.0214844 L 46.001953 6.0566406 z M 46.570312 7.0214844 L 7.109375 7.0214844 L 13.402344 50.224609 L 12.957031 50.105469 L 13.525391 51.068359 L 26.425781 54.931641 C 26.514148 54.948332 26.602058 54.963925 26.691406 54.953125 L 39.857422 50.769531 L 46.570312 7.0214844 z "
         transform="matrix(-1.018485,0,0,-1.018485,-10.693005,23.976851)"
         id="path2263" />
      <path
         style="fill:url(#linearGradient31599);fill-opacity:1"
         inkscape:connector-curvature="0"
         d="m -37.299339,-31.009999 -13.408999,4.26 -6.837,44.557887 40.189999,1.13e-4 -6.535,-44.862 -13.138,-3.935 c -0.09,-0.017 -0.18,-0.032 -0.271,-0.021 z"
         id="path7760"
         sodipodi:nodetypes="ccccccc" />
    </g>
  </g>
  <path
     style="fill:#ac812a;stroke:none;stroke-width:1px;stroke-linecap:butt;stroke-linejoin:miter;stroke-opacity:1;fill-opacity:1"
     d="m 26.123444,53.988868 0.302339,0.942775 13.431641,-4.16211 -0.568347,-0.963348 z"
     id="path2272"
     inkscape:connector-curvature="0" />
</svg>

<svg height="60" width="55" xmlns="http://www.w3.org/2000/svg" xmlns:xlink="http://www.w3.org/1999/xlink"><filter id="a" height="1.232913" width="1.284531" x="-.117737" y="-.096378"><feGaussianBlur in="SourceAlpha" result="blur" stdDeviation="2"/><feOffset dx="2" dy="2" result="offsetBlur"/><feBlend in="SourceGraphic" in2="offsetBlur" mode="normal"/></filter><linearGradient id="b" gradientUnits="userSpaceOnUse" spreadMethod="repeat" x1="148.57835" x2="130.3233" y1="49.825951" y2="49.825951"><stop offset="0" stop-color="#dfb459"/><stop offset=".04123921" stop-color="#dead54"/><stop offset=".08247842" stop-color="#e1b85f"/><stop offset=".16495684" stop-color="#dba84d"/><stop offset=".3052367" stop-color="#dfb765"/><stop offset=".53886235" stop-color="#d8a94e"/><stop offset=".58579648" stop-color="#d5ab53"/><stop offset=".83974683" stop-color="#e0bf6e"/><stop offset=".92426348" stop-color="#daae52"/><stop offset=".96230692" stop-color="#d9af57"/><stop offset="1" stop-color="#e1b663"/></linearGradient><linearGradient id="c" gradientUnits="userSpaceOnUse" spreadMethod="repeat" x1="148.57835" x2="130.3233" y1="49.825951" y2="49.825951"><stop offset="0" stop-color="#e5c37b"/><stop offset=".04234359" stop-color="#e4bd76"/><stop offset=".09289452" stop-color="#e7c781"/><stop offset=".16495684" stop-color="#e2b86e"/><stop offset=".3052367" stop-color="#e6c686"/><stop offset=".53886235" stop-color="#dfb96f"/><stop offset=".58579648" stop-color="#ddbb73"/><stop offset=".83974683" stop-color="#e7ce8f"/><stop offset=".92426348" stop-color="#e1bd73"/><stop offset=".96230692" stop-color="#e0bf78"/><stop offset="1" stop-color="#e7c685"/></linearGradient><g fill="url(#b)" filter="url(#a)" transform="matrix(.98185054 0 0 .98185054 -100.00148 -23.218948)"><g fill="url(#b)" transform="matrix(-1 0 0 -1 91.156998 47.625)"><path d="m46.001953 6.0566406-.136719.9550782.705078.0097656zm.568359.9648438h-39.460937l6.292969 43.2031246-.445313-.11914.56836.96289 12.90039 3.863282c.088367.016691.176277.032284.265625.021484l13.166016-4.183594z" fill="#876419" stroke-width=".981851" transform="matrix(-1.018485 0 0 -1.018485 -10.693005 23.976851)"/><path d="m-37.299339-31.009999-13.408999 4.26-6.837 44.557887 40.189999.000113-6.535-44.862-13.138-3.935c-.09-.017-.18-.032-.271-.021z" fill="url(#c)"/></g></g><path d="m26.123444 53.988868.302339.942775 13.431641-4.16211-.568347-.963348z" fill="#ac812a"/></svg>
